X: 041
M: 6/8
L: 1/8
K: G
!segno!BcB |\
ded dcB | c2A A2B | cdc cBA | B2G B2c |\
ded dBc | ded dBc | ded dcB | A3 |]
g2d |\
c2B g2B | A2G g2d | c2B g2B | A2G g2f |\
efd cde | !segno!A3 d2A | dgf edc | !segno!d3 |]

